X:1
T:Title
%%score { ( 1 3 ) | ( 2 4 5 ) }
L:1/8
M:4/4
K:D
V:1 treble nm="Grand Piano"
V:3 treble 
V:2 bass 
V:4 bass 
V:5 bass 
V:1
 z4 z2[Q:1/4=94] [DF]>[EG] | [FA]>[Fd] [Gc]>[GB] [FA]2 D>E |[M:3/4] F>F G>B A2 |[M:1/4] F>[EG] | %4
[M:4/4] [FA]>[GB] [FA]>F D>F E>D |[M:3/4] [CE]6 |[M:1/4] A>G | %7
[M:4/4] F>=F ^F>[FA] [Fd]2 [FA]>[FA] | [GB]>[Bd] [Ac]>[GB] [FA]2 D>E | %9
 F>G A>B [FA]>[DF] [CE]>[CF] |[M:3/4] D6 |[M:1/4] F>G |[M:4/4] z2 D>D D>F (3A z c | %13
 [Fd]4 [FA]2 z2 | B6 z2 |[M:3/4] [CE]6 |[M:1/4] [A,FA]>[A,EG] | %17
[M:4/4] [A,DF]>[^G,D=F] [A,D^F]>[DFA] [Fd]2 [FA]>[FA] |[M:3/4] [GB]>[Bd] [Ac]>[GB] [FA]2 | %19
[M:1/4] D>E |[M:4/4] F>G A>B [FA]>[EG] [DF]>[K:bass][CE] |[M:3/4] D6 |] %22
V:2
 z4 z2 [D,A,]>[D,A,] | [D,D]>[D,A,] [D,B,]>[D,C] [D,D]2 [D,F,]>[D,G,D] | %2
[M:3/4] [D,A,D]>[D,A,D] [D,B,D]>[D,G,D] [D,F,D]2 |[M:1/4] [D,A,D]>[D,A,] | %4
[M:4/4] [D,D]>[D,D] [D,D]>[D,A,D] [D,F,]>[D,A,D] [C,A,]>[B,,^G,B,] |[M:3/4] A,2 A,>A, A,2 | %6
[M:1/4] [F,A,D]>[E,A,C] |[M:4/4] [D,A,D]>[D,^G,D] [D,A,D]>[D,D] [D,A,]2 [D,D]>[F,D] | %8
 [G,D]>[G,D] [G,D]>[G,D] [D,D]2 [F,A,]>[K:treble][G,B,D] | %9
 [A,D]>[A,E] [A,F]>[A,G][K:bass] [A,,A,]>[A,,A,] [A,,G,]>[A,,A,] |[M:3/4] [D,F,]6 | %11
[M:1/4][K:treble] D>E |[M:4/4] F6[K:bass] z2[K:treble] | [D,A,]>D, D,>D, D,>D,[K:treble] D>F | %14
 G6[K:bass] z2 |[M:3/4] [A,,A,]2 A,>A, A,2 |[M:1/4] A,,>A,, | %17
[M:4/4] D,>D, D,>D, [D,A,]2 [D,D]>[D,D] |[M:3/4] [G,D]>[G,D] [G,D]>[G,D] [D,D]2 | %19
[M:1/4] [F,A,]>[K:treble][G,B,D] | %20
[M:4/4] [A,D]>[A,E] [A,F]>[A,G][K:bass] [A,,A,]>[A,,A,] [A,,A,]>[A,,G,] |[M:3/4] [F,A,]2 z2 z2 |] %22
V:3
 x8 | x8 |[M:3/4] x6 |[M:1/4] x2 |[M:4/4] x8 |[M:3/4] z2 z2 z G, |[M:1/4] x2 |[M:4/4] x8 | x8 | %9
 x8 |[M:3/4] x6 |[M:1/4] x2 |[M:4/4] A6 [DF]2 | z z/ A,/ A,>A, D>D F>A | z2 D>D D>A G>F | %15
[M:3/4] x6 |[M:1/4] x2 |[M:4/4] x8 |[M:3/4] x6 |[M:1/4] x2 |[M:4/4] x15/2[K:bass] x/ | %21
[M:3/4] z2 B,>B, A,2 |] %22
V:4
 x8 | x8 |[M:3/4] x6 |[M:1/4] x2 |[M:4/4] x8 |[M:3/4] x6 |[M:1/4] x2 |[M:4/4] x8 | %8
 x15/2[K:treble] x/ | x4[K:bass] x4 |[M:3/4] x6 |[M:1/4][K:treble] x2 | %12
[M:4/4] z2[K:bass] D,>D, z z/ D/ (3z[K:treble] BG | x6[K:treble] x2 | %14
 z2 G,>G,[K:bass] G,>[F,D] [E,A,C]>[D,A,D] |[M:3/4] x6 |[M:1/4] x2 |[M:4/4] x8 |[M:3/4] x6 | %19
[M:1/4] x3/2[K:treble] x/ |[M:4/4] x4[K:bass] x4 |[M:3/4] D,2- [D,-G,]>[D,-G,] [D,F,]2 |] %22
V:5
 x8 | x8 |[M:3/4] x6 |[M:1/4] x2 |[M:4/4] x8 |[M:3/4] x6 |[M:1/4] x2 |[M:4/4] x8 | %8
 x15/2[K:treble] x/ | x4[K:bass] x4 |[M:3/4] x6 |[M:1/4][K:treble] x2 | %12
[M:4/4] z4[K:bass] D,2 D,2[K:treble] | x6[K:treble] x2 | x4[K:bass] x4 |[M:3/4] x6 |[M:1/4] x2 | %17
[M:4/4] x8 |[M:3/4] x6 |[M:1/4] x3/2[K:treble] x/ |[M:4/4] x4[K:bass] x4 |[M:3/4] x6 |] %22

